!!!OTL: Kornschneiden Idt is ein Boicken kamen int landt,
!!!ARE: Europa, Mitteleuropa, Deutschland
!!!YOR: 6, S. 210
!!    1608 Handschrift (1603 - 08)
!!!SCT: Q0136
!!!YEM: Copyright 1995, estate of Helmut Schaffrath.
**kern
*ICvox
*Ivox
*M3/4
*k[b-]
*F:
{4f
=1
2f
4c
=2
2f
4g
=3
2a
4a
=4
2g}
{4f
=5
2f
4c
=6
2f
4g
=7
2.a
=8
2g}
{4f
=9
2g
4a
=10
2b-
4cc
=11
2a
4a
=12
2g}
{4g
=13
2f
4f
=14
4c
4d
4e-
=15
2.d
=16
2c}
==
!!!AGN: Ballade, Beischlaf, Schwangerschaft, Moral
!! Taktart entsprechend den Taktstrichen als 3/4 bezeichnet.
!!!ONB: ESAC (Essen Associative Code) Database: BALLADE
!!!AMT: simple triple
!!!AIN: vox
!!!EED: Helmut Schaffrath
!!!EEV: 1.0
*-
